X: 1
T: Sir Archibald Grant of Monymusk's Reel
C: Daniel Dow? (Scotland ~1775)
M: 4/4
L: 1/8
K: G
e | "G"dGBG dG"C"ce  | "G"dGBG "D7"~A2ce | "G"dGBG Bcdg | "Am"ec"D7"Ad "G"BGG :|
f | "G"~g2dg Bg"D7"df | "G"gd"C"cg "G"Bg"D7"Af | "G"gd"C"eg "G"dgBg | "Am"ec"D7"Ad "G"BGG |]
f | "G"~g2dg Bg"D7"df | "G"gd"C"cg "G"Bg"D7"Af | "G"gd"C"eg "G"dg"C"cg | "G"Bg"D7"Ad "G"BGG |]
